X:106
T:The Green Brechans o' Branton
Z:Jack Campin, http://www.campin.me.uk/
S:Northumbrian Minstrelsy
M:6/8
L:1/8
K:G
g|f2B BdB|e2A AcA|f2B BdB|d3 g3 |
  f2B BdB|e2A AcA|Bcd ecA|d3 g2:|
g|fdB fdB|ecA ecA|fdB fdB|d3 g3 |
  fdB fdB|ecA ecA|Bcd ecA|d3 g3:|

